app/component-library/components/Icons/Icon/assets/dark.svg

<svg width="24" height="24" viewBox="0 0 24 24" fill="none" xmlns="http://www.w3.org/2000/svg">
<path d="M21.811 15.9299C21.651 15.6599 21.201 15.2399 20.081 15.4399C19.461 15.5499 18.831 15.5999 18.201 15.5699C15.871 15.4699 13.761 14.3999 12.291 12.7499C10.991 11.2999 10.191 9.40987 10.181 7.36987C10.181 6.22987 10.401 5.12987 10.851 4.08987C11.291 3.07987 10.981 2.54987 10.761 2.32987C10.531 2.09987 9.99096 1.77987 8.93096 2.21987C4.84096 3.93987 2.31096 8.03987 2.61096 12.4299C2.91096 16.5599 5.81096 20.0899 9.65096 21.4199C10.571 21.7399 11.541 21.9299 12.541 21.9699C12.701 21.9799 12.861 21.9899 13.021 21.9899C16.371 21.9899 19.511 20.4099 21.491 17.7199C22.161 16.7899 21.981 16.1999 21.811 15.9299Z" fill="currentColor"/>
</svg>

<svg xmlns="http://www.w3.org/2000/svg" width="24" height="24" viewBox="0 0 24 24" fill="none"><path d="M21.811 15.93c-.16-.27-.61-.69-1.73-.49-.62.11-1.25.16-1.88.13a8.41 8.41 0 0 1-5.91-2.82c-1.3-1.45-2.1-3.34-2.11-5.38 0-1.14.22-2.24.67-3.28.44-1.01.13-1.54-.09-1.76-.23-.23-.77-.55-1.83-.11-4.09 1.72-6.62 5.82-6.32 10.21.3 4.13 3.2 7.66 7.04 8.99.92.32 1.89.51 2.89.55.16.01.32.02.48.02 3.35 0 6.49-1.58 8.47-4.27.67-.93.49-1.52.32-1.79z" fill="currentColor"/></svg>
